X:263
T:Kit White's #1
R:
M:4/4
K:G
d2 dd d2 e2 | d2 B2 G4 | A2 AA A2 d2 | B4 G4 |
d2 dd d2 e2 | d2 B2 G4 | A2 AA A2 d2 | G4 G4 :||
D4 G2 A2 | B6 c2 | d2 B2 G2 E2 | D6 B2 |
c3 B A2 B2 | c4 A4 | d3 c B2 A2 | B8 |
D4 G2 A2 | B6 c2 | d2 B2 G2 E2 | D6 B2 |
c3 B A2 B2 | c4 A4 | d2 d2 e2 f2 | g4 g4 ||
